X:1
T:Halle, 77.77
T:Halle, 77.77
T:The Psalmist, 1830
T:Public Domain Courtesy of the Cyber Hymnal™
C:The Psalmist, 1830
Z:Public Domain
Z:Courtesy of the Cyber Hymnal™
%%score ( 1 2 ) ( 3 4 )
L:1/8
Q:1/4=110
M:4/4
K:Bb
V:1 treble 
V:2 treble 
V:3 bass 
V:4 bass 
V:1
 [DG]2 [DG]2 [EA]2 [DA]2 | [DB]2 [EB]2 F4 | [B,G]2 [B,G]2 [B,D]2 (DE) | [B,F]2 (FE) [B,D]4 | %4
 [DB]2 [FB]2 [Gc]2 c2 | [Dd]2 [Dd]2 [DA]4 | [DB]2 [DG]2 [Dc]2 [DB]2 | [DA]2 A2 [B,G]6 |] %8
V:2
 x8 | x4 (E2 D2) | x6 B,2 | x2 A,2 x4 | x6 (FE) | x8 | x8 | x2 (DC) x6 |] %8
V:3
 [G,,B,]2 [G,B,]2 [G,D]2 (DC) | [G,B,]2 B,2 [B,,B,]4 | [E,,E,G,]2 G,2 [B,,F,]2 [G,,G,]2 | %3
 [D,,D,F,]2 [F,,F,]2 [B,,F,]4 | [G,B,]2 [D,B,]2 [E,B,]2 [F,A,]2 | (B,A,) G,2 (G,2 ^F,2) | %6
 [G,,G,]2 [B,,G,]2 [^F,,A,]2 [G,,G,]2 | [D,G,]2 [D,^F,]2 [G,,G,]6 |] %8
V:4
 x6 ^F,2 | x2 (G,,A,,) x4 | x2 (G,,A,,) x4 | x8 | x8 | B,,2 (B,,C,) D,4 | x8 | x10 |] %8

